packages/core/src/browser/icons/arrow-down-dark.svg

<svg fill="none" height="16" viewBox="0 0 16 16" width="16" xmlns="http://www.w3.org/2000/svg"><path clip-rule="evenodd" d="m3.14646 9.76777 4.99998 5.00003h.70711l4.99995-5.00003-.7071-.70711-4.1464 4.14644v-12.2071l-1-.000001v12.207101l-4.14644-4.14644z" fill="#c5c5c5" fill-rule="evenodd"/></svg>

<!--Copyright (c) Microsoft Corporation. All rights reserved.-->
<!--Copyright (C) 2020 RedHat and others.-->
<!--Licensed under the MIT License. See License.txt in the project root for license information.-->
<svg width="16" height="16" viewBox="0 0 16 16" fill="none" xmlns="http://www.w3.org/2000/svg">
<path fill-rule="evenodd" clip-rule="evenodd" d="M3.14646 9.76777L8.14644 14.7678L8.85355 14.7678L13.8535 9.76777L13.1464 9.06066L9 13.2071L9 1L8 0.999999L8 13.2071L3.85356 9.06066L3.14646 9.76777Z" fill="#C5C5C5"/>
</svg>
